components/Common/Svg/svgs/titledSwift.svg

<svg
  width="96"
  height="137"
  viewBox="0 0 96 137"
  fill="none"
  xmlns="http://www.w3.org/2000/svg"
>
  <path
    d="M35.342 123.706C35.342 124.306 35.198 124.864 34.91 125.38C34.622 125.896 34.184 126.316 33.596 126.64C33.008 126.964 32.282 127.126 31.418 127.126C30.578 127.126 29.828 126.976 29.168 126.676C28.52 126.364 27.998 125.944 27.602 125.416C27.218 124.876 26.996 124.264 26.936 123.58H28.682C28.718 123.94 28.838 124.294 29.042 124.642C29.258 124.978 29.558 125.26 29.942 125.488C30.338 125.704 30.812 125.812 31.364 125.812C32.084 125.812 32.636 125.62 33.02 125.236C33.404 124.852 33.596 124.36 33.596 123.76C33.596 123.244 33.458 122.824 33.182 122.5C32.918 122.176 32.588 121.924 32.192 121.744C31.796 121.552 31.256 121.348 30.572 121.132C29.768 120.868 29.12 120.622 28.628 120.394C28.148 120.154 27.734 119.8 27.386 119.332C27.05 118.864 26.882 118.246 26.882 117.478C26.882 116.818 27.038 116.236 27.35 115.732C27.674 115.228 28.13 114.838 28.718 114.562C29.318 114.286 30.02 114.148 30.824 114.148C32.072 114.148 33.062 114.454 33.794 115.066C34.526 115.666 34.952 116.434 35.072 117.37H33.308C33.212 116.866 32.954 116.422 32.534 116.038C32.114 115.654 31.544 115.462 30.824 115.462C30.164 115.462 29.636 115.636 29.24 115.984C28.844 116.32 28.646 116.8 28.646 117.424C28.646 117.916 28.772 118.318 29.024 118.63C29.288 118.93 29.612 119.17 29.996 119.35C30.38 119.518 30.908 119.71 31.58 119.926C32.396 120.19 33.05 120.442 33.542 120.682C34.046 120.922 34.472 121.288 34.82 121.78C35.168 122.26 35.342 122.902 35.342 123.706ZM51.1165 117.118L48.2725 127H46.5085L43.7905 118.954L41.0545 127H39.2725L36.4645 117.118H38.1205L40.2265 125.434L42.9625 117.118H44.6725L47.4265 125.416L49.5505 117.118H51.1165ZM52.3561 114.22C52.3561 113.92 52.4581 113.68 52.6621 113.5C52.8661 113.308 53.1361 113.212 53.4721 113.212C53.8081 113.212 54.0781 113.308 54.2821 113.5C54.4861 113.68 54.5881 113.92 54.5881 114.22C54.5881 114.52 54.4861 114.766 54.2821 114.958C54.0781 115.138 53.8081 115.228 53.4721 115.228C53.1361 115.228 52.8661 115.138 52.6621 114.958C52.4581 114.766 52.3561 114.52 52.3561 114.22ZM54.2821 117.118V127H52.6441V117.118H54.2821ZM61.2896 114.778C60.4136 114.766 59.8016 114.916 59.4536 115.228C59.1176 115.54 58.9496 116.08 58.9496 116.848V117.118H61.2896V118.558H58.9496V127H57.3116V118.558H55.8896V117.118H57.3116V116.722C57.3116 114.358 58.6376 113.23 61.2896 113.338V114.778ZM67.7839 125.56V127H66.5599C65.5519 127 64.7959 126.76 64.2919 126.28C63.7999 125.8 63.5539 124.996 63.5539 123.868V118.54H62.0779V117.118H63.5539V114.652H65.2099V117.118H67.7659V118.54H65.2099V123.904C65.2099 124.54 65.3239 124.978 65.5519 125.218C65.7919 125.446 66.1999 125.56 66.7759 125.56H67.7839Z"
    fill="#A0A0A0"
  ></path>
  <path
    d="M30.5563 17H64.3446C65.9887 17 67.5852 17.2621 69.134 17.8102C71.3739 18.6203 73.3993 20.05 74.9243 21.9086C76.4731 23.7672 77.4977 26.0547 77.8551 28.4375C77.9981 29.3191 78.0219 30.2008 78.0219 31.0824V64.0367C78.0219 65.0852 77.9743 66.1574 77.7598 67.182C77.2833 69.541 76.1633 71.757 74.543 73.5441C72.9465 75.3312 70.8497 76.6656 68.586 77.3805C67.204 77.8094 65.7743 78 64.3208 78C63.6774 78 30.461 78 29.9606 77.9762C27.5301 77.857 25.1235 77.0707 23.0981 75.7125C21.1204 74.3781 19.5001 72.5195 18.4516 70.375C17.5462 68.5402 17.0934 66.491 17.0934 64.4418V30.5582C17.0458 28.5328 17.4747 26.5312 18.3563 24.7203C19.3809 22.5758 20.9774 20.6934 22.9551 19.359C24.9805 17.977 27.3633 17.1668 29.7938 17.0477C30.0321 17 30.2942 17 30.5563 17Z"
    fill="#7C7C7C"
  ></path>
  <path
    d="M68.4688 66.8961C68.2543 66.5625 68.016 66.2289 67.7539 65.9191C67.1582 65.2043 66.4672 64.5848 65.7047 64.0606C64.7516 63.4172 63.6316 63.0121 62.4879 62.9645C61.6777 62.9168 60.8676 63.0598 60.1051 63.3457C59.3426 63.6078 58.6039 63.9891 57.8891 64.3703C57.0551 64.7992 56.2211 65.2281 55.3395 65.5855C54.291 66.0145 53.1949 66.3481 52.075 66.5863C50.6691 66.8484 49.2395 66.9438 47.8336 66.9199C45.284 66.8723 42.7344 66.491 40.3039 65.7762C38.1594 65.1328 36.1102 64.2512 34.1801 63.1313C32.4883 62.1543 30.9156 61.0344 29.4383 59.7715C28.223 58.723 27.1031 57.6031 26.0547 56.4117C25.3398 55.5777 24.6488 54.6961 24.0055 53.7906C23.7434 53.4332 23.5051 53.052 23.2906 52.6707L17 45.8797V30.5105C17 23.0523 23.0285 17 30.4867 17H42.5199L51.4316 26.0547C71.5426 39.732 65.0375 54.8152 65.0375 54.8152C65.0375 54.8152 70.7562 61.2488 68.4688 66.8961Z"
    fill="#6A6A6A"
  ></path>
  <path
    d="M51.4777 26.0547C71.5887 39.732 65.0836 54.8152 65.0836 54.8152C65.0836 54.8152 70.8023 61.2727 68.491 66.9199C68.491 66.9199 66.132 62.9645 62.1766 62.9645C58.3641 62.9645 56.1242 66.9199 48.4516 66.9199C31.3668 66.9199 23.2891 52.6469 23.2891 52.6469C38.682 62.7738 49.1902 55.6016 49.1902 55.6016C42.2563 51.5746 27.5066 32.3215 27.5066 32.3215C40.35 43.2586 45.902 46.1418 45.902 46.1418C42.5898 43.4016 33.2969 30.0102 33.2969 30.0102C40.7312 37.5398 55.5047 48.048 55.5047 48.048C59.6984 36.4199 51.4777 26.0547 51.4777 26.0547Z"
    fill="white"
  ></path>
</svg>

<svg width="96" height="137" viewBox="0 0 96 137" fill="none" xmlns="http://www.w3.org/2000/svg"><path d="M35.342 123.706c0 .6-.144 1.158-.432 1.674-.288.516-.726.936-1.314 1.26-.588.324-1.314.486-2.178.486-.84 0-1.59-.15-2.25-.45a4.187 4.187 0 0 1-1.566-1.26 3.661 3.661 0 0 1-.666-1.836h1.746a2.6 2.6 0 0 0 .36 1.062c.216.336.516.618.9.846.396.216.87.324 1.422.324.72 0 1.272-.192 1.656-.576.384-.384.576-.876.576-1.476 0-.516-.138-.936-.414-1.26a2.695 2.695 0 0 0-.99-.756c-.396-.192-.936-.396-1.62-.612a18.488 18.488 0 0 1-1.944-.738 3.483 3.483 0 0 1-1.242-1.062c-.336-.468-.504-1.086-.504-1.854 0-.66.156-1.242.468-1.746.324-.504.78-.894 1.368-1.17.6-.276 1.302-.414 2.106-.414 1.248 0 2.238.306 2.97.918a3.445 3.445 0 0 1 1.278 2.304h-1.764c-.096-.504-.354-.948-.774-1.332-.42-.384-.99-.576-1.71-.576-.66 0-1.188.174-1.584.522-.396.336-.594.816-.594 1.44 0 .492.126.894.378 1.206.264.3.588.54.972.72.384.168.912.36 1.584.576.816.264 1.47.516 1.962.756.504.24.93.606 1.278 1.098.348.48.522 1.122.522 1.926Zm15.775-6.588L48.273 127h-1.765l-2.718-8.046L41.055 127h-1.782l-2.807-9.882h1.655l2.107 8.316 2.736-8.316h1.71l2.753 8.298 2.124-8.298h1.567Zm1.24-2.898c0-.3.101-.54.305-.72.204-.192.474-.288.81-.288.336 0 .606.096.81.288.204.18.306.42.306.72s-.102.546-.306.738c-.204.18-.474.27-.81.27-.336 0-.606-.09-.81-.27a.969.969 0 0 1-.306-.738Zm1.925 2.898V127h-1.638v-9.882h1.638Zm7.008-2.34c-.876-.012-1.488.138-1.836.45-.336.312-.504.852-.504 1.62v.27h2.34v1.44h-2.34V127h-1.638v-8.442H55.89v-1.44h1.422v-.396c0-2.364 1.326-3.492 3.978-3.384v1.44Zm6.494 10.782V127H66.56c-1.008 0-1.764-.24-2.268-.72-.492-.48-.738-1.284-.738-2.412v-5.328h-1.476v-1.422h1.476v-2.466h1.656v2.466h2.556v1.422H65.21v5.364c0 .636.114 1.074.342 1.314.24.228.648.342 1.224.342h1.008Z" fill="#A0A0A0"/><path d="M30.556 17h33.789c1.644 0 3.24.262 4.789.81 2.24.81 4.265 2.24 5.79 4.099a13.36 13.36 0 0 1 2.931 6.529c.143.881.167 1.763.167 2.644v32.955c0 1.048-.048 2.12-.262 3.145a13.488 13.488 0 0 1-3.217 6.362 13.49 13.49 0 0 1-5.957 3.837c-1.382.428-2.812.619-4.265.619-.644 0-33.86 0-34.36-.024a13.597 13.597 0 0 1-6.863-2.263 13.772 13.772 0 0 1-4.646-5.338c-.906-1.835-1.359-3.884-1.359-5.933V30.558a12.65 12.65 0 0 1 1.263-5.838 13.53 13.53 0 0 1 4.6-5.361 13.347 13.347 0 0 1 6.838-2.311c.238-.048.5-.048.762-.048Z" fill="#7C7C7C"/><path d="M68.469 66.896a9.32 9.32 0 0 0-.715-.977 10.121 10.121 0 0 0-2.05-1.858c-.952-.644-2.072-1.049-3.216-1.097a5.824 5.824 0 0 0-2.383.382c-.762.262-1.501.643-2.216 1.024-.834.43-1.668.858-2.55 1.215a19.149 19.149 0 0 1-3.264 1.001 21.215 21.215 0 0 1-4.241.334c-2.55-.048-5.1-.429-7.53-1.144a28.487 28.487 0 0 1-6.124-2.645 31.576 31.576 0 0 1-4.742-3.36 34.648 34.648 0 0 1-3.383-3.36 36.753 36.753 0 0 1-2.05-2.62c-.262-.358-.5-.739-.714-1.12L17 45.88V30.51C17 23.053 23.029 17 30.487 17H42.52l8.912 9.055c20.11 13.677 13.605 28.76 13.605 28.76s5.72 6.434 3.432 12.081Z" fill="#6A6A6A"/><path d="M51.478 26.055c20.11 13.677 13.606 28.76 13.606 28.76s5.718 6.458 3.407 12.105c0 0-2.359-3.956-6.314-3.956-3.813 0-6.053 3.956-13.725 3.956-17.085 0-25.163-14.273-25.163-14.273 15.393 10.127 25.901 2.955 25.901 2.955-6.934-4.027-21.683-23.28-21.683-23.28 12.843 10.937 18.395 13.82 18.395 13.82-3.312-2.74-12.605-16.132-12.605-16.132 7.434 7.53 22.208 18.038 22.208 18.038 4.193-11.628-4.027-21.993-4.027-21.993Z" fill="#fff"/></svg>
